X:76
T:Red Rose, The
M:6/8
L:1/8
B:Thompson's Compleat Collection of 200 Favourite Country Dances, vol. 2 (London, 1765)
Z:Transcribed and edited by Flynn Titford-Mock, 2007Z:abc's:AK/Fiddler's Companion
K:Gmin
G/A/ | BGG GAB | cAA ABc | BAG AG^F | GGG GGA | BGG GAB | cAA ABc | BAG AG^F | GGG G2 :|
|: B/c/ | ddd gdd | Acc fcc | dBB cAA | BGG A^FD | ddd gdd | Acc fcc | BGG A^FF | (G3 G2) :|

